X:1
T:Roast Beef of Old England. RHu.020
L:1/8
Q:3/8=100
M:6/8
I:linebreak $
K:C
V:1 treble 
V:1
 A | c>dc Bcd | ece d2 G | c>dc BAG | AG^F"^d.cr in MS" G2 ::$ G | AFA cBc | GEG A3 | Gfe dcB | %9
 c3 GFE | FGA GcB | c3 c2 :| %12
